X: 255
T:Fisherman's Island, The
M:C|
L:1/8
C:Ed Reavy
R:reel
Z: Philippe Varlet
K:D
"D"D2FA "D"d2dA|"E7"BA^GB "D"AFDF|(3GFE (3FED EFGA|"Em"(3Bcd ed "A"cAAg|
"D"fd~d2 "A"ecAc|"D"~d3 B "D"AGFD|"A"EFGA "A"(3Bcd ed|1 "A"cAGE "A"EDCE:
|
2 "A"cAGE "D"EDD2||
|:"D"fd~d2 "D"AF~F2|"D"DFAd "D"fdAf|"G"gece "A"bece|"D"dfed "A"cAGE|
"D"DF~F2 "D"Adfd|"G"Bg~g2 "A"edcB|"D"Adfa "Em"gbed|1 "A"cAGE "D"EDD2:|
2 "A"cAGE "A"EDCE||

